X: 11
T: the Banks of the Shannon
%R: jig
B: "Twenty Four Country Dances for the Year 1781", Thomas Skillern, ed. p.6 #1
F: http://www.vwml.org/browse/browse-collections-dance-tune-books/browse-skillerns1781#
Z: 2014 John Chambers <jc:trillian.mit.edu>
M: 6/8
L: 1/8
K: G
Bc |\
d>ed dBG | E>FE E2B/c/ | d>ed dBG | DED D2B/c/ |\
d>ed dBG | e>fg gfe | d>ed cBA | G>AG HG2 :|
|: G |\
G>AB B>^cd | d2D D2F | G>AB A>BG | F2D D2A |\
B>cB Beg | A>BA A>df | Ggf ed^c | d2D "D.C."D2 |]
%%begintext align
%%   Right Hands across & pas Rigadoon .| Left back again
%% & pas Rigadoon :| Cross over 2 Cu. lead up & Cast off 4
%% Hands at bottom :|. Six Hands round, 1st two Cu. pas
%% Rigadoon & Right & Left at top :|:
%%endtext
